X: 9983
T: Devil's Dream, The
R: hornpipe
M: 4/4
K: Gmajor
(3def|:gfgd gfgd|gfgd edcB|ceAe ceAe|ceAe gfed|
gfgd gfgd|gfgd edcB|cege dBAG|D2F2G2 z2:|
|:BdGd BdGd|BdGd edcB|ceAe ceAe|ceAe gfed|
BdGd BdGd|BdGd edcB|cege dBAG|D2F2G2 z2:|

